icons/bag-arrow-up.svg

<svg xmlns="http://www.w3.org/2000/svg" width="24" height="24" viewBox="0 0 24 24">
  <path d="M14,2 C15.5976809,2 16.9036609,3.24891996 16.9949073,4.82372721 L17,5 L17,6 L20,6 C21.1045695,6 22,6.8954305 22,8 L22,20 C22,21.1045695 21.1045695,22 20,22 L4,22 C2.8954305,22 2,21.1045695 2,20 L2,8 C2,6.8954305 2.8954305,6 4,6 L7,6 L7,5 C7,3.40231912 8.24891996,2.09633912 9.82372721,2.00509269 L10,2 L14,2 Z M12,10 L11.980824,10.0001802 L11.9409686,10.0017331 C11.9308872,10.0023256 11.9208131,10.00307 11.909968,10.003998 L11.909968,10.003998 L11.8515331,10.0110178 C11.834051,10.0136281 11.8166247,10.0167022 11.7992059,10.0201652 C11.7772539,10.0246398 11.7555635,10.0298336 11.734007,10.0358451 C11.7185367,10.0400977 11.7031487,10.0447287 11.6882636,10.0495467 C11.6682023,10.0561225 11.6484208,10.0633157 11.628664,10.0712255 L11.628664,10.0712255 L11.5769009,10.0936538 C11.5561086,10.1033766 11.5357061,10.1137939 11.5159379,10.1246712 L11.5159379,10.1246712 L11.4793398,10.1460674 C11.453725,10.1617187 11.4288693,10.1784901 11.4046934,10.1963346 L11.4046934,10.1963346 L11.38,10.215 L11.37,10.224 L11.2928932,10.2928932 L8.29289322,13.2928932 L8.20970461,13.3871006 C7.90467972,13.7793918 7.93240926,14.3466228 8.29289322,14.7071068 C8.68341751,15.0976311 9.31658249,15.0976311 9.70710678,14.7071068 L9.70710678,14.7071068 L11,13.415 L11,17 L11.0067277,17.1166211 C11.0644928,17.6139598 11.4871642,18 12,18 C12.5522847,18 13,17.5522847 13,17 L13,17 L13,13.415 L14.2928932,14.7071068 L14.3871006,14.7902954 C14.7793918,15.0953203 15.3466228,15.0675907 15.7071068,14.7071068 C16.0976311,14.3165825 16.0976311,13.6834175 15.7071068,13.2928932 L15.7071068,13.2928932 L12.7071068,10.2928932 L12.625449,10.2196888 C12.6225624,10.2173721 12.6196628,10.2150711 12.6128994,10.2097046 C12.6070733,10.2051745 12.6012086,10.2007179 12.5951593,10.1963135 C12.5711307,10.1784901 12.546275,10.1617187 12.5207088,10.1459955 C12.5086131,10.1386069 12.4963944,10.1314988 12.484277,10.1248758 C12.4642939,10.1137939 12.4438914,10.1033766 12.4232215,10.0936734 L12.4232215,10.0936734 L12.3710585,10.071104 C12.3515792,10.0633157 12.3317977,10.0561225 12.3121425,10.0497381 C12.2968513,10.0447287 12.2814633,10.0400977 12.2658396,10.035721 C12.2444365,10.0298336 12.2227461,10.0246398 12.2007258,10.0202401 C12.1833753,10.0167022 12.165949,10.0136281 12.1489612,10.0110193 L12.1489612,10.0110193 L12.081,10.003 L12,10 Z M14,4 L10,4 C9.48716416,4 9.06449284,4.38604019 9.00672773,4.88337887 L9,5 L9,6 L15,6 L15,5 C15,4.48716416 14.6139598,4.06449284 14.1166211,4.00672773 L14,4 Z"/>
</svg>

<svg xmlns="http://www.w3.org/2000/svg" viewBox="0 0 24 24">
  <path d="M14 2a3 3 0 0 1 3 2.82V6h3a2 2 0 0 1 2 2v12a2 2 0 0 1-2 2H4a2 2 0 0 1-2-2V8c0-1.1.9-2 2-2h3V5a3 3 0 0 1 2.82-3H14zm-2 8h-.09l-.06.01a1.1 1.1 0 0 0-.22.06l-.05.02-.06.03-.04.03-.08.05-.02.02h-.01l-.08.07-3 3-.08.1a1 1 0 0 0 1.5 1.32L11 13.4v3.71a1 1 0 0 0 2-.12V13.4l1.3 1.3.09.08a1 1 0 0 0 1.32-1.5l-3-3-.08-.07a3 3 0 0 0-.15-.1 1.02 1.02 0 0 0-.06-.03l-.05-.02a.95.95 0 0 0-.22-.06H12zm2-6h-4a1 1 0 0 0-1 .88V6h6V5a1 1 0 0 0-.88-1H14z"/>
</svg>
